X: 27576
T: Monnington Pavane, The
R: reel
M: 4/4
K: Gminor
|:G2A2 B2BB|AGFE D2DD|G2AA B>c dc|1 BGG^F G2GD:|2 BGG^F G2GA||
|:Bcd=e f2dc|dgg^f g2fe|d>c B/c/d c>B A/B/c|1 BGG^F G2GA:|2 BGG^F G2GD||

